src/assets/in-depo/Pause.svg

<?xml version="1.0" encoding="UTF-8"?>
<svg width="24px" height="24px" viewBox="0 0 24 24" version="1.1" xmlns="http://www.w3.org/2000/svg" xmlns:xlink="http://www.w3.org/1999/xlink">
    <title>Foundations/Icons/Pause@1x</title>
    <g id="💡-Icons" stroke="none" stroke-width="1" fill="none" fill-rule="evenodd">
        <g id="Foundations/Icons/Pause" fill="#14232E">
            <path d="M9.5,5.5 C10.3284271,5.5 11,6.17157288 11,7 L11,7 L11,17 C11,17.8284271 10.3284271,18.5 9.5,18.5 L9.5,18.5 L6.5,18.5 C5.67157288,18.5 5,17.8284271 5,17 L5,17 L5,7 C5,6.17157288 5.67157288,5.5 6.5,5.5 L6.5,5.5 Z M17.5,5.5 C18.3284271,5.5 19,6.17157288 19,7 L19,7 L19,17 C19,17.8284271 18.3284271,18.5 17.5,18.5 L17.5,18.5 L14.5,18.5 C13.6715729,18.5 13,17.8284271 13,17 L13,17 L13,7 C13,6.17157288 13.6715729,5.5 14.5,5.5 L14.5,5.5 Z M9.5,6.5 L6.5,6.5 C6.22385763,6.5 6,6.72385763 6,7 L6,7 L6,17 C6,17.2761424 6.22385763,17.5 6.5,17.5 L6.5,17.5 L9.5,17.5 C9.77614237,17.5 10,17.2761424 10,17 L10,17 L10,7 C10,6.72385763 9.77614237,6.5 9.5,6.5 L9.5,6.5 Z M17.5,6.5 L14.5,6.5 C14.2238576,6.5 14,6.72385763 14,7 L14,7 L14,17 C14,17.2761424 14.2238576,17.5 14.5,17.5 L14.5,17.5 L17.5,17.5 C17.7761424,17.5 18,17.2761424 18,17 L18,17 L18,7 C18,6.72385763 17.7761424,6.5 17.5,6.5 L17.5,6.5 Z" id="Combined-Shape"></path>
        </g>
    </g>
</svg>

<svg width="24" height="24" viewBox="0 0 24 24" xmlns="http://www.w3.org/2000/svg"><path d="M9.5 5.5A1.5 1.5 0 0111 7v10a1.5 1.5 0 01-1.5 1.5h-3A1.5 1.5 0 015 17V7a1.5 1.5 0 011.5-1.5zm8 0A1.5 1.5 0 0119 7v10a1.5 1.5 0 01-1.5 1.5h-3A1.5 1.5 0 0113 17V7a1.5 1.5 0 011.5-1.5zm-8 1h-3A.5.5 0 006 7v10a.5.5 0 00.5.5h3a.5.5 0 00.5-.5V7a.5.5 0 00-.5-.5zm8 0h-3a.5.5 0 00-.5.5v10a.5.5 0 00.5.5h3a.5.5 0 00.5-.5V7a.5.5 0 00-.5-.5z" fill="#14232E" fill-rule="evenodd"/></svg>
